X:1
T:The Maiden's Lament
M:3/2
L:1/4
K:F
 A A A| f3e/2-d/2 c/2d/2 e| d3 A A A| f3 e/2d/2c/2-d/2 e|
M:2/2
 d3d/2-e/2|
M:3/2
 f d c d d c| A G F F G A| d- c A G F E| D2 z||
